X:1
T: Feshiebridge
C:Gary Morris
R:Strathspey
Q: 128
K:C
M:4/4
L:1/16
|:E2|C4 E3C cC3 E3C|F3E D3E F3D dD3|E3D C3D E3F G3E|F3D GE3 C4 C3E|
C4 E3C cC3 E3C|F3E D3E F3D dD3|E3D C3D E3F G3E|F3B ed3 c4 c2G2|
c3d ec3 A3c G3c|d3c B3c d3e f3d|c3e ec3 Ac3 G4|E3G cB3 c4c4|
e4 dc3 A3c G3c|d3c Bc3 d3e fd3|e3c dB3 cA3 B3G|A3c Ge3 d4c2:|
